Simply-Green-Circles/scalable/apps/preferences-desktop-font.svg

<?xml version="1.0" encoding="UTF-8" standalone="no"?>
<svg
   xmlns:dc="http://purl.org/dc/elements/1.1/"
   xmlns:cc="http://creativecommons.org/ns#"
   xmlns:rdf="http://www.w3.org/1999/02/22-rdf-syntax-ns#"
   xmlns:svg="http://www.w3.org/2000/svg"
   xmlns="http://www.w3.org/2000/svg"
   xmlns:sodipodi="http://sodipodi.sourceforge.net/DTD/sodipodi-0.dtd"
   xmlns:inkscape="http://www.inkscape.org/namespaces/inkscape"
   width="48"
   height="48"
   viewBox="0 0 12.7 12.7"
   version="1.1"
   id="svg4"
   sodipodi:docname="preferences-desktop-font.svg"
   inkscape:version="0.92.4 (5da689c313, 2019-01-14)">
  <metadata
     id="metadata10">
    <rdf:RDF>
      <cc:Work
         rdf:about="">
        <dc:format>image/svg+xml</dc:format>
        <dc:type
           rdf:resource="http://purl.org/dc/dcmitype/StillImage" />
        <dc:title></dc:title>
      </cc:Work>
    </rdf:RDF>
  </metadata>
  <defs
     id="defs8" />
  <sodipodi:namedview
     pagecolor="#ffffff"
     bordercolor="#666666"
     borderopacity="1"
     objecttolerance="10"
     gridtolerance="10"
     guidetolerance="10"
     inkscape:pageopacity="0"
     inkscape:pageshadow="2"
     inkscape:window-width="1087"
     inkscape:window-height="480"
     id="namedview6"
     showgrid="false"
     inkscape:zoom="4.9166667"
     inkscape:cx="2.1355932"
     inkscape:cy="24"
     inkscape:window-x="0"
     inkscape:window-y="25"
     inkscape:window-maximized="0"
     inkscape:current-layer="svg4" />
  <path
     d="m 6.344,0.073 a 6.29,6.29 0 0 0 -6.29,6.29 6.29,6.29 0 0 0 6.29,6.288 6.29,6.29 0 0 0 6.29,-6.289 6.29,6.29 0 0 0 -6.29,-6.29 z M 6.326,1.009 A 5.407,5.407 0 0 1 11.733,6.416 5.407,5.407 0 0 1 6.326,11.823 5.407,5.407 0 0 1 0.92,6.416 5.407,5.407 0 0 1 6.326,1.01 Z M 6.185,3.405 C 6.112,3.41 6.058,3.448 6.031,3.535 5.101,5.089 4.181,6.65 3.244,8.2 3.016,8.525 2.81,8.947 2.394,9.053 2.239,8.999 2.234,9.259 2.301,9.291 H 3.992 C 4.023,9.121 3.977,9.021 3.778,9.061 3.391,9.121 3.432,8.668 3.577,8.444 3.753,8.091 3.961,7.754 4.151,7.408 H 6.087 C 6.15,7.833 6.25,8.255 6.281,8.684 6.361,9.034 5.968,9.067 5.723,9.074 5.65,9.06 5.626,9.334 5.736,9.291 H 7.76 V 9.28 c 0.033,0.003 0.065,0.008 0.1,0.008 0.218,0 0.448,-0.068 0.69,-0.206 0.161,-0.092 0.348,-0.234 0.56,-0.424 0,0.27 0.075,0.455 0.225,0.553 0.08,0.052 0.193,0.077 0.337,0.077 0.103,0 0.204,-0.02 0.302,-0.06 0.155,-0.063 0.31,-0.187 0.466,-0.371 V 8.633 a 0.992,0.992 0 0 1 -0.182,0.12 0.457,0.457 0 0 1 -0.206,0.043 C 9.937,8.796 9.864,8.759 9.836,8.684 A 1.553,1.553 0 0 1 9.801,8.296 V 6.612 C 9.801,6.209 9.746,5.913 9.637,5.723 9.447,5.395 9.073,5.231 8.515,5.231 8.066,5.231 7.707,5.349 7.436,5.585 7.218,5.775 7.109,5.976 7.109,6.189 c 0,0.087 0.03,0.173 0.094,0.26 0.063,0.08 0.156,0.12 0.277,0.12 0.109,0 0.2,-0.038 0.276,-0.113 A 0.356,0.356 0 0 0 7.868,6.198 3.344,3.344 0 0 1 7.833,6.043 2.003,2.003 0 0 1 7.825,5.861 c 0,-0.126 0.063,-0.227 0.19,-0.302 a 0.772,0.772 0 0 1 0.423,-0.12 c 0.172,0 0.316,0.042 0.431,0.129 0.156,0.12 0.233,0.316 0.233,0.587 V 6.681 C 8.285,7.003 7.75,7.251 7.497,7.423 7.269,7.58 7.112,7.763 7.025,7.973 6.902,7.257 6.786,6.539 6.664,5.822 L 6.264,3.41 A 0.308,0.308 0 0 0 6.184,3.405 Z m -0.529,1.29 0.387,2.29 H 4.335 Z M 9.102,6.888 V 8.14 A 0.72,0.72 0 0 1 9.05,8.45 C 9.016,8.513 8.935,8.574 8.809,8.632 8.745,8.666 8.662,8.701 8.559,8.735 A 0.906,0.906 0 0 1 8.273,8.787 0.515,0.515 0 0 1 7.868,8.597 0.738,0.738 0 0 1 7.704,8.097 C 7.704,7.89 7.776,7.705 7.919,7.544 8.139,7.297 8.533,7.078 9.102,6.888 Z"
     id="path2"
     inkscape:connector-curvature="0"
     style="fill:#2ca02c" />
</svg>

<svg xmlns="http://www.w3.org/2000/svg" width="48" height="48" viewBox="0 0 12.7 12.7"><path fill="#2ca02c" d="M6.34.07a6.29 6.29 0 0 0-6.29 6.3 6.29 6.29 0 0 0 6.3 6.28 6.29 6.29 0 0 0 6.28-6.29A6.29 6.29 0 0 0 6.34.07zm-.01.94a5.4 5.4 0 0 1 5.4 5.4 5.4 5.4 0 0 1-5.4 5.41 5.4 5.4 0 0 1-5.41-5.4A5.4 5.4 0 0 1 6.32 1zm-.14 2.4c-.08 0-.13.04-.16.13C5.1 5.08 4.18 6.64 3.24 8.2c-.22.33-.43.75-.85.85-.15-.05-.16.2-.09.24H4c.02-.17-.02-.27-.22-.23-.39.06-.35-.4-.2-.62.17-.35.38-.69.57-1.03H6.1c.06.42.16.84.2 1.27.07.35-.32.39-.57.4-.07-.02-.1.25.02.21h2.02v-.01h.1c.22 0 .45-.06.69-.2.16-.09.35-.23.56-.42 0 .27.07.45.23.55.07.05.19.08.33.08.1 0 .2-.02.3-.06.16-.07.31-.19.47-.37v-.23a1 1 0 0 1-.18.12.46.46 0 0 1-.2.05c-.12 0-.2-.04-.22-.12a1.55 1.55 0 0 1-.04-.38V6.6c0-.4-.05-.7-.16-.89-.2-.32-.57-.49-1.13-.49-.44 0-.8.12-1.07.35-.22.2-.33.4-.33.6 0 .1.03.18.1.27.06.08.15.12.27.12.1 0 .2-.04.28-.11a.36.36 0 0 0 .1-.26 3.34 3.34 0 0 1-.03-.16 2 2 0 0 1 0-.18c0-.13.06-.23.18-.3a.77.77 0 0 1 .43-.12.7.7 0 0 1 .43.13c.15.12.23.31.23.58v.53c-.82.32-1.35.57-1.6.74-.23.16-.39.34-.48.55l-.36-2.15-.4-2.41a.3.3 0 0 0-.08 0zM5.66 4.7l.38 2.29h-1.7l1.32-2.3zM9.1 6.88v1.25a.72.72 0 0 1-.05.31c-.03.06-.12.12-.24.18-.06.04-.15.07-.25.1a.9.9 0 0 1-.29.06.52.52 0 0 1-.4-.2.74.74 0 0 1-.17-.5c0-.2.08-.38.22-.55.22-.24.61-.46 1.18-.65z"/></svg>
